src/lib/packages/icons/src/assets/line/flask.svg

<svg width="24" height="24" viewBox="0 0 24 24" fill="none" xmlns="http://www.w3.org/2000/svg">
<path d="M20.2501 16.865L16.0981 10.335C15.8691 9.97296 15.747 9.55595 15.747 9.12695V3.75H16.0001C16.4141 3.75 16.7501 3.414 16.7501 3C16.7501 2.586 16.4141 2.25 16.0001 2.25H8.00005C7.58605 2.25 7.25005 2.586 7.25005 3C7.25005 3.414 7.58605 3.75 8.00005 3.75H8.2531V9.12695C8.2531 9.55595 8.13203 9.97296 7.90203 10.335L3.75005 16.866C3.11805 17.86 3.07905 19.0691 3.64605 20.1011C4.21205 21.1341 5.25406 21.75 6.43206 21.75H17.5671C18.7451 21.75 19.7861 21.1341 20.3531 20.1021C20.9201 19.0701 20.8821 17.86 20.2501 16.865ZM9.16802 11.1389C9.55102 10.5369 9.7531 9.84095 9.7531 9.12695V3.75H14.247V9.12695C14.247 9.84095 14.4491 10.5369 14.8321 11.1389L15.856 12.75H8.143L9.16802 11.1389ZM19.038 19.3799C18.739 19.9249 18.1891 20.25 17.5671 20.25H6.43206C5.81006 20.25 5.26001 19.9239 4.96001 19.3789C4.66001 18.8339 4.68107 18.1949 5.01507 17.6709L7.18902 14.251H16.809L18.9831 17.6709C19.3171 18.1949 19.338 18.8339 19.038 19.3799Z" fill="currentColor"/>
</svg>

<svg xmlns="http://www.w3.org/2000/svg" width="24" height="24" fill="none"><path fill="currentColor" d="m20.25 16.865-4.152-6.53a2.256 2.256 0 0 1-.351-1.208V3.75H16a.75.75 0 0 0 0-1.5H8a.75.75 0 0 0 0 1.5h.253v5.377c0 .429-.121.846-.351 1.208L3.75 16.866a3.136 3.136 0 0 0-.104 3.235 3.135 3.135 0 0 0 2.786 1.649h11.135a3.137 3.137 0 0 0 2.786-1.648 3.14 3.14 0 0 0-.103-3.237ZM9.168 11.139a3.742 3.742 0 0 0 .585-2.012V3.75h4.494v5.377c0 .714.202 1.41.585 2.012l1.024 1.611H8.143l1.025-1.611Zm9.87 8.24a1.654 1.654 0 0 1-1.47.871H6.431a1.66 1.66 0 0 1-1.472-.871 1.653 1.653 0 0 1 .055-1.708l2.174-3.42h9.62l2.174 3.42c.334.524.355 1.163.055 1.709Z"/></svg>
